assets/facebook-icon.svg

<svg fill="#FFFFFF" xmlns="http://www.w3.org/2000/svg"  viewBox="0 0 50 50" width="150px" height="150px"><path d="M 25 3 C 12.861562 3 3 12.861562 3 25 C 3 36.019135 11.127533 45.138355 21.712891 46.728516 L 22.861328 46.902344 L 22.861328 29.566406 L 17.664062 29.566406 L 17.664062 26.046875 L 22.861328 26.046875 L 22.861328 21.373047 C 22.861328 18.494965 23.551973 16.599417 24.695312 15.410156 C 25.838652 14.220896 27.528004 13.621094 29.878906 13.621094 C 31.758714 13.621094 32.490022 13.734993 33.185547 13.820312 L 33.185547 16.701172 L 30.738281 16.701172 C 29.349697 16.701172 28.210449 17.475903 27.619141 18.507812 C 27.027832 19.539724 26.84375 20.771816 26.84375 22.027344 L 26.84375 26.044922 L 32.966797 26.044922 L 32.421875 29.564453 L 26.84375 29.564453 L 26.84375 46.929688 L 27.978516 46.775391 C 38.71434 45.319366 47 36.126845 47 25 C 47 12.861562 37.138438 3 25 3 z M 25 5 C 36.057562 5 45 13.942438 45 25 C 45 34.729791 38.035799 42.731796 28.84375 44.533203 L 28.84375 31.564453 L 34.136719 31.564453 L 35.298828 24.044922 L 28.84375 24.044922 L 28.84375 22.027344 C 28.84375 20.989871 29.033574 20.060293 29.353516 19.501953 C 29.673457 18.943614 29.981865 18.701172 30.738281 18.701172 L 35.185547 18.701172 L 35.185547 12.009766 L 34.318359 11.892578 C 33.718567 11.811418 32.349197 11.621094 29.878906 11.621094 C 27.175808 11.621094 24.855567 12.357448 23.253906 14.023438 C 21.652246 15.689426 20.861328 18.170128 20.861328 21.373047 L 20.861328 24.046875 L 15.664062 24.046875 L 15.664062 31.566406 L 20.861328 31.566406 L 20.861328 44.470703 C 11.816995 42.554813 5 34.624447 5 25 C 5 13.942438 13.942438 5 25 5 z"/></svg>

<svg xmlns="http://www.w3.org/2000/svg" width="150" height="150" fill="#FFF" viewBox="0 0 50 50"><path d="M25 3C12.862 3 3 12.862 3 25c0 11.02 8.128 20.138 18.713 21.729l1.148.173V29.566h-5.197v-3.52h5.197v-4.673c0-2.878.691-4.774 1.834-5.963s2.833-1.789 5.184-1.789c1.88 0 2.611.114 3.307.2v2.88h-2.448a3.59 3.59 0 0 0-3.119 1.807c-.591 1.032-.775 2.264-.775 3.52v4.017h6.123l-.545 3.52h-5.578V46.93l1.135-.155C38.714 45.32 47 36.127 47 25c0-12.138-9.862-22-22-22m0 2c11.058 0 20 8.942 20 20 0 9.73-6.964 17.732-16.156 19.533V31.564h5.293l1.162-7.52h-6.455v-2.017c0-1.037.19-1.967.51-2.525s.628-.8 1.384-.8h4.448V12.01l-.868-.117c-.6-.082-1.969-.272-4.44-.272-2.702 0-5.022.736-6.624 2.402s-2.393 4.147-2.393 7.35v2.674h-5.197v7.52h5.197V44.47C11.817 42.555 5 34.624 5 25 5 13.942 13.942 5 25 5"/></svg>
